svgs/sharp-solid/industry-windows.svg

<svg xmlns="http://www.w3.org/2000/svg" viewBox="0 0 576 512"><!--! Font Awesome Pro 6.6.0 by @fontawesome - https://fontawesome.com License - https://fontawesome.com/license (Commercial License) Copyright 2024 Fonticons, Inc. --><path d="M32 32l128 0 0 192 192-96 0 96 192-96 0 96 0 256L32 480l0-96 0-160L32 32zM328 312l-80 0 0 80 80 0 0-80zm-128 0l-80 0 0 80 80 0 0-80zm256 0l-80 0 0 80 80 0 0-80z"/></svg>

<svg xmlns="http://www.w3.org/2000/svg" viewBox="0 0 576 512"><!--! Font Awesome Pro 6.4.2 by @fontawesome - https://fontawesome.com License - https://fontawesome.com/license (Commercial License) Copyright 2023 Fonticons, Inc. --><path d="M32 32H160V224l192-96v96l192-96v96V480H32V384 224 32zM328 312H248v80h80V312zm-128 0H120v80h80V312zm256 0H376v80h80V312z"/></svg>
